**kern	**silbe	**kern	**silbe	**kern	**silbe	**harmony	**chordsym	**phrase	**timestamp	**leadinstrument
*ICvox	*	*ICvox	*	*ICvox	*	*M4/4	*M4/4	*	*	*
*VRlead	*	*VRharmonize	*	*VRharmonize	*	*	*	*	*	*
*Hstimme	*	*Nstimme	*	*Nstimme	*	*	*	*	*	*
*	*	*	*	*	*	*A:	*A:	*	*	*
=1	=1	=1	=1	=1	=1	=1	=1	=1	=1	=1
*A:	*	*A:	*	*A:	*	*	*	*	*	*
*M4/4	*	*M4/4	*	*M4/4	*	*	*	*	*	*
*clefF4	*	*clefC3	*	*clefG2	*	*	*	*	*	*
r;	.	r;	.	r;	.	1r;	r	.	0	r
=2	=2	=2	=2	=2	=2	=2	=2	=2	=2	=2
*>Letter>A	*>Letter>A	*>Letter>A	*>Letter>A	*>Letter>A	*>Letter>A	*>Letter>A	*>Letter>A	*>Letter>A	*>Letter>A	*>Letter>A
*>Label>Intro	*>Label>Intro	*>Label>Intro	*>Label>Intro	*>Label>Intro	*>Label>Intro	*>Label>Intro	*>Label>Intro	*>Label>Intro	*>Label>Intro	*>Label>Intro
1r	.	1r	.	1r	.	1AM	A:maj (E A C#)	newline	0.418	woodwinds
=3	=3	=3	=3	=3	=3	=3	=3	=3	=3	=3
1r	.	1r	.	1r	.	2C#mm	C#:min7 (E C# G# B)	.	.	woodwinds
.	.	.	.	.	.	2Cd	C:dim (C E- G-)	.	.	woodwinds
=4	=4	=4	=4	=4	=4	=4	=4	=4	=4	=4
1r	.	1r	.	1r	.	2AM	A:maj(9) (E A C# B)	newline	6.069	woodwinds
.	.	.	.	.	.	2AM	A:maj (E A C#)	.	.	woodwinds
=5	=5	=5	=5	=5	=5	=5	=5	=5	=5	=5
1r	.	1r	.	1r	.	2Bmm	B:min7 (E B D F# A)	.	.	woodwinds
.	.	.	.	.	.	4Cd	C:dim (C E- G-)	.	.	woodwinds
.	.	.	.	.	.	4C#mm	C#:min7 (E C# G# B)	.	.	woodwinds
=6	=6	=6	=6	=6	=6	=6	=6	=6	=6	=6
*>Letter>B	*>Letter>B	*>Letter>B	*>Letter>B	*>Letter>B	*>Letter>B	*>Letter>B	*>Letter>B	*>Letter>B	*>Letter>B	*>Letter>B
*>Label>Theme	*>Label>Theme	*>Label>Theme	*>Label>Theme	*>Label>Theme	*>Label>Theme	*>Label>Theme	*>Label>Theme	*>Label>Theme	*>Label>Theme	*>Label>Theme
1C#	I'm	1r	.	1r	.	1AM	A:maj (A C# E)	newline	10.646	voice
=7	=7	=7	=7	=7	=7	=7	=7	=7	=7	=7
12D	drea-	1r	.	1r	.	4DM	D:maj (A D F#)	.	.	voice
12F#	_	.	.	.	.	.	.	.	.	.
12D	_	.	.	.	.	.	.	.	.	.
4C#	-ming	.	.	.	.	4AM	A:maj (A C# E)	.	.	voice
4r	.	.	.	.	.	4G#M	G#:maj (A G# B# D#)	.	.	voice
16C	of	.	.	.	.	4AM	A:maj (A C# E)	.	.	voice
16C#	a	.	.	.	.	.	.	.	.	.
[8D	white	.	.	.	.	.	.	.	.	.
=8	=8	=8	=8	=8	=8	=8	=8	=8	=8	=8
1D]	_	1r	.	1r	.	1Bm	B:min (B D F#)	.	.	voice
=9	=9	=9	=9	=9	=9	=9	=9	=9	=9	=9
8D#	Christ-	1r	.	1r	.	2D#d	D#:dim (E D# F# A)	.	.	voice
[8E	-mas	.	.	.	.	.	.	.	.	.
2E]	_	.	.	.	.	.	.	.	.	.
.	.	.	.	.	.	2EMm	E:7 (E G# B D)	.	.	voice
4r	.	.	.	.	.	.	.	.	.	.
=10	=10	=10	=10	=10	=10	=10	=10	=10	=10	=10
4r	.	1r	.	1r	.	1Bmm	B:min7 (B D F# A)	newline	20.576	voice
16r	.	.	.	.	.	.	.	.	.	.
8F#	Just	.	.	.	.	.	.	.	.	.
[16G#	like	.	.	.	.	.	.	.	.	.
4G#]	_	.	.	.	.	.	.	.	.	.
8A	the	.	.	.	.	.	.	.	.	.
[8B	ones	.	.	.	.	.	.	.	.	.
=11	=11	=11	=11	=11	=11	=11	=11	=11	=11	=11
2B_	_	1r	.	1r	.	2Bmm	B:min7 (D B F# A)	.	.	voice
8B]	_	.	.	.	.	2EMm	E:7 (E G# B D)	.	.	voice
8A	I	.	.	.	.	.	.	.	.	.
[4G#	used	.	.	.	.	.	.	.	.	.
=12	=12	=12	=12	=12	=12	=12	=12	=12	=12	=12
8G#]	_	1r	.	1r	.	2AM	A:maj (A C# E)	.	.	voice
8F#	to	.	.	.	.	.	.	.	.	.
2.E	know.	.	.	.	.	.	.	.	.	.
.	.	.	.	.	.	2EMm	E:7 (E G# B D)	.	.	voice
=13	=13	=13	=13	=13	=13	=13	=13	=13	=13	=13
2r	.	1r	.	1r	.	4G#M	G#:maj (A G# B# D#)	.	.	voice
.	.	.	.	.	.	4AM	A:maj (A C# E)	.	.	voice
4r	.	.	.	.	.	4Bmm	B:min7 (B D F# A)	.	.	voice
8AA	Where	.	.	.	.	4EMm	E:7 (E G# B D)	.	.	voice
16BB	the	.	.	.	.	.	.	.	.	.
[16C#	tree	.	.	.	.	.	.	.	.	.
=14	=14	=14	=14	=14	=14	=14	=14	=14	=14	=14
2C#]	_	1r	.	1r	.	1AM	A:maj (A C# E)	newline	30.232	voice
4C	tops	.	.	.	.	.	.	.	.	.
4r	.	.	.	.	.	.	.	.	.	.
=15	=15	=15	=15	=15	=15	=15	=15	=15	=15	=15
12C#	glis-	1r	.	1r	.	2AMm	A:9 (A C# G B)	.	.	voice
[6F#	-ten,	.	.	.	.	.	.	.	.	.
2F#]	_	.	.	.	.	.	.	.	.	.
.	.	.	.	.	.	2AMm	A:7(b9) (A C# E G B-)	.	.	voice
4r	.	.	.	.	.	.	.	.	.	.
=16	=16	=16	=16	=16	=16	=16	=16	=16	=16	=16
8r	.	1r	.	1r	.	1DMM	D:maj7 (D F# A C#)	.	.	voice
[8E	and	.	.	.	.	.	.	.	.	.
8E]	_	.	.	.	.	.	.	.	.	.
[8AA	chil-	.	.	.	.	.	.	.	.	.
8AA]	_	.	.	.	.	.	.	.	.	.
4.AA	-dren	.	.	.	.	.	.	.	.	.
=17	=17	=17	=17	=17	=17	=17	=17	=17	=17	=17
12AA	lis-	1r	.	1r	.	1DMM	D:maj6(7) (D F# A B C#)	.	.	voice
[6E	-ten,	.	.	.	.	.	.	.	.	.
2E]	_	.	.	.	.	.	.	.	.	.
8r	.	.	.	.	.	.	.	.	.	.
8D	to	.	.	.	.	.	.	.	.	.
=18	=18	=18	=18	=18	=18	=18	=18	=18	=18	=18
1C#	hear	1r	.	1r	.	1F#m	F#:min (F# A C#)	newline	40.561	voice
=19	=19	=19	=19	=19	=19	=19	=19	=19	=19	=19
12D	sleigh	1r	.	1r	.	2F#mm	F#:min7 (F# A C# E)	.	.	voice
12F#	_	.	.	.	.	.	.	.	.	.
12D	_	.	.	.	.	.	.	.	.	.
2C#	bells	.	.	.	.	.	.	.	.	.
.	.	.	.	.	.	2BMm	B:7 (B D# F# A)	.	.	voice
12BB	in	.	.	.	.	.	.	.	.	.
6AA	the	.	.	.	.	.	.	.	.	.
=20	=20	=20	=20	=20	=20	=20	=20	=20	=20	=20
1BB	snow.	1r	.	1r	.	1EM	E:sus4(b7) (E A B D)	.	.	voice
=21	=21	=21	=21	=21	=21	=21	=21	=21	=21	=21
2r	.	1r	.	1r	.	1EMm	E:7 (E G# B D)	.	.	voice
4r	.	.	.	.	.	.	.	.	.	.
8r	.	.	.	.	.	.	.	.	.	.
16r	.	.	.	.	.	.	.	.	.	.
[16C#	I'm	.	.	.	.	.	.	.	.	.
=22	=22	=22	=22	=22	=22	=22	=22	=22	=22	=22
*>Letter>B2	*>Letter>B2	*>Letter>B2	*>Letter>B2	*>Letter>B2	*>Letter>B2	*>Letter>B2	*>Letter>B2	*>Letter>B2	*>Letter>B2	*>Letter>B2
*>Label>Theme	*>Label>Theme	*>Label>Theme	*>Label>Theme	*>Label>Theme	*>Label>Theme	*>Label>Theme	*>Label>Theme	*>Label>Theme	*>Label>Theme	*>Label>Theme
1C#]	_	1r	.	1r	.	1AMm	A:7 (A C# E G)	newline	50.524	voice
=23	=23	=23	=23	=23	=23	=23	=23	=23	=23	=23
12D	drea-	1r	.	1r	.	4DM	D:maj (A D F#)	.	.	voice
12E	_	.	.	.	.	.	.	.	.	.
12D	_	.	.	.	.	.	.	.	.	.
4C#	-ming	.	.	.	.	4AM	A:maj (A C# E)	.	.	voice
4r	.	.	.	.	.	4G#M	G#:maj (A G# B# D#)	.	.	voice
12r	.	.	.	.	.	4AM	A:maj (A C# E)	.	.	voice
12FF#	of	.	.	.	.	.	.	.	.	.
12~BB	a	.	.	.	.	.	.	.	.	.
=24	=24	=24	=24	=24	=24	=24	=24	=24	=24	=24
1D	white	1r	.	1r	.	1Bm	B:min (B D F#)	.	.	voice
=25	=25	=25	=25	=25	=25	=25	=25	=25	=25	=25
8D#	Christ-	1r	.	1r	.	2D#d	D#:dim (E D# F# A)	.	.	voice
[8E	-mas	.	.	.	.	.	.	.	.	.
2.E]	_	.	.	.	.	.	.	.	.	.
.	.	.	.	.	.	2EMm	E:7 (E G# B D)	.	.	voice
=26	=26	=26	=26	=26	=26	=26	=26	=26	=26	=26
4r	.	1r	.	1r	.	1Bmm	B:min7 (B D F# A)	newline	60.438	voice
8r	.	.	.	.	.	.	.	.	.	.
8F#	with	.	.	.	.	.	.	.	.	.
8G#	ev-	.	.	.	.	.	.	.	.	.
[8A	-'ry	.	.	.	.	.	.	.	.	.
4A]	_	.	.	.	.	.	.	.	.	.
=27	=27	=27	=27	=27	=27	=27	=27	=27	=27	=27
4B	Christ-	1r	.	1r	.	2Bmm	B:min7 (D B F# A)	.	.	voice
4A	-mas	.	.	.	.	.	.	.	.	.
2G#	card	.	.	.	.	2EMm	E:7 (E G# B D)	.	.	voice
=28	=28	=28	=28	=28	=28	=28	=28	=28	=28	=28
8FF#	I	1r	.	1r	.	2AM	A:maj (A C# E)	.	.	voice
[8E	write	.	.	.	.	.	.	.	.	.
2.E]	_	.	.	.	.	.	.	.	.	.
.	.	.	.	.	.	2G#M	G#:maj (A G# B# D#)	.	.	voice
=29	=29	=29	=29	=29	=29	=29	=29	=29	=29	=29
2r	.	1r	.	1r	.	2AM	A:maj (A C# E)	.	.	voice
4AA	May	.	.	.	.	4Bmm	B:min7 (B D F# A)	.	.	voice
8BB	your	.	.	.	.	4EMm	E:7 (E G# B D)	.	.	voice
[8C#	days	.	.	.	.	.	.	.	.	.
=30	=30	=30	=30	=30	=30	=30	=30	=30	=30	=30
2C#]	_	1r	.	1r	.	1AM	A:maj (A C# E)	newline	70.435	voice
4r	.	.	.	.	.	.	.	.	.	.
8r	.	.	.	.	.	.	.	.	.	.
8FF#	be	.	.	.	.	.	.	.	.	.
=31	=31	=31	=31	=31	=31	=31	=31	=31	=31	=31
8C#	mer-	1r	.	1r	.	2AMm	A:9 (A C# G B)	.	.	voice
[8F#	-ry	.	.	.	.	.	.	.	.	.
2F#]	_	.	.	.	.	.	.	.	.	.
.	.	.	.	.	.	2AMm	A:7(b9) (A C# E G B-)	.	.	voice
4E	and	.	.	.	.	.	.	.	.	.
=32	=32	=32	=32	=32	=32	=32	=32	=32	=32	=32
[1A	bright,	1r	.	1r	.	1DMM	D:maj7 (D F# A C#)	.	.	voice
=33	=33	=33	=33	=33	=33	=33	=33	=33	=33	=33
4A]	_	1r	.	1r	.	1Dm	D:min (D F A)	.	.	voice
4r	.	.	.	.	.	.	.	.	.	.
4.AA	and	.	.	.	.	.	.	.	.	.
8BB	may	.	.	.	.	.	.	.	.	.
=34	=34	=34	=34	=34	=34	=34	=34	=34	=34	=34
2.C#	all	1r	.	1r	.	2AM	A:maj (A C# E)	newline	80.684	voice
.	.	.	.	.	.	2AMm	A:7 (A C# E G)	.	.	voice
4C#	your	.	.	.	.	.	.	.	.	.
=35	=35	=35	=35	=35	=35	=35	=35	=35	=35	=35
4.F#	Christ-	1r	.	1r	.	2DM	D:maj (D F# A)	.	.	voice
8GG#	-ma-	.	.	.	.	.	.	.	.	.
4.GG#	-ses	.	.	.	.	2EMm	E:7(b9) (E G# B D F)	.	.	voice
8GG#	be	.	.	.	.	.	.	.	.	.
=36	=36	=36	=36	=36	=36	=36	=36	=36	=36	=36
1AA	white.	1r	.	1r	.	2AM	A:maj (A C# E)	.	.	voice
.	.	.	.	.	.	2C#mm	C#:min7 (C# E G# B)	.	.	voice
=37	=37	=37	=37	=37	=37	=37	=37	=37	=37	=37
1r	.	1r	.	1r	.	2F#mm	F#:min7 (F# A C# E)	.	.	voice
.	.	.	.	.	.	4EMm	E:7 (B E G# D)	.	.	voice
.	.	.	.	.	.	4B-M	B-:maj (B- D F)	.	.	voice
=38	=38	=38	=38	=38	=38	=38	=38	=38	=38	=38
*>Letter>B3	*>Letter>B3	*>Letter>B3	*>Letter>B3	*>Letter>B3	*>Letter>B3	*>Letter>B3	*>Letter>B3	*>Letter>B3	*>Letter>B3	*>Letter>B3
*>Label>Theme	*>Label>Theme	*>Label>Theme	*>Label>Theme	*>Label>Theme	*>Label>Theme	*>Label>Theme	*>Label>Theme	*>Label>Theme	*>Label>Theme	*>Label>Theme
1r	.	1AA 1E 1c#	I'm	1e 1a 1cc#	_	1AM	A:maj (A C# E)	newline	90.747	choir
=39	=39	=39	=39	=39	=39	=39	=39	=39	=39	=39
1r	.	4AA 4F# 4d	drea-	4f# 4a 4dd	_	4DM	D:maj (A D F#)	.	.	choir
.	.	4AA 4E 4c#	-ming	4e 4a 4cc#	_	4AM	A:maj (A C# E)	.	.	choir
.	.	4AA 4D# 4c	of	4d# 4a 4cc	_	4G#M	G#:maj (A G# B# D#)	.	.	choir
.	.	4AA 4E 4c#	a	4e 4a 4cc#	_	4AM	A:maj (A C# E)	.	.	choir
=40	=40	=40	=40	=40	=40	=40	=40	=40	=40	=40
1r	.	1BB 1F# 1A 1d	white	1f# 1a 1dd	_	1Bmm	B:min7 (B D F# A)	.	.	choir
=41	=41	=41	=41	=41	=41	=41	=41	=41	=41	=41
1r	.	4EE 4F## 4c# 4d#	Christ-	4g 4a# 4dd#	_	2D#d	D#:dim (E D# F# A)	.	.	choir
.	.	4EE 4G# 4d 4e	-mas,	4g# 4b 4ee	_	.	.	.	.	.
.	.	2r	.	2r	.	2EMm	E:7 (E G# B D)	.	.	choir
=42	=42	=42	=42	=42	=42	=42	=42	=42	=42	=42
1r	.	4r	.	1r	.	1Bmm	B:min7 (B D F# A)	newline	100.675	choir
.	.	4F#	just	.	.	.	.	.	.	.
.	.	4G#	like	.	.	.	.	.	.	.
.	.	8A	the	.	.	.	.	.	.	.
.	.	[8B	ones	.	.	.	.	.	.	.
=43	=43	=43	=43	=43	=43	=43	=43	=43	=43	=43
1r	.	4B]	_	1r	.	2DM	D:maj (D F# A)	.	.	choir
.	.	4A	I	.	.	.	.	.	.	.
.	.	4.G#	used	.	.	2EMm	E:7 (E G# B D)	.	.	choir
.	.	8F#	to	.	.	.	.	.	.	.
=44	=44	=44	=44	=44	=44	=44	=44	=44	=44	=44
1r	.	1E	know.	1r	.	1AM	A:maj (A C# E)	.	.	choir
=45	=45	=45	=45	=45	=45	=45	=45	=45	=45	=45
1r	.	2r	.	1r	.	4G#M	G#:maj (A G# B# D#)	.	.	choir
.	.	.	.	.	.	2.AM	A:maj (A C# E)	.	.	choir
.	.	4A	Where	.	.	.	.	.	.	.
.	.	4B	the	.	.	.	.	.	.	.
=46	=46	=46	=46	=46	=46	=46	=46	=46	=46	=46
1r	.	2AA 2E 2A 2c#	tree-	1r	.	2AM	A:maj (A C# E)	newline	110.579	choir
.	.	2AA 2E 2G# 2B 2c#	-tops	.	.	2AMm	A:7 (A C# E G)	.	.	choir
=47	=47	=47	=47	=47	=47	=47	=47	=47	=47	=47
1r	.	4AA 4E 4G 4c#	glis-	2r	.	1AMm	A:7 (A C# E G)	.	.	choir
.	.	2AA 2E 2G	-ten,	.	.	.	.	.	.	.
.	.	.	.	4r	.	.	.	.	.	.
.	.	4E	and	4e	_	.	.	.	.	.
=48	=48	=48	=48	=48	=48	=48	=48	=48	=48	=48
1r	.	2AA 2D 2F# 2A	chil-	2d 2f# 2a	_	1DM	D:maj (D F# A)	.	.	choir
.	.	2AA 2D 2F# 2A	-dren	2d 2f# 2a	_	.	.	.	.	.
=49	=49	=49	=49	=49	=49	=49	=49	=49	=49	=49
1r	.	4AA 4F 4A 4B	lis-	4d 4f 4a	_	1DMM	D:maj6(7) (D F# A B C#)	.	.	choir
.	.	4AA 4F 4A 4B	-ten,	4f 4b 4ee	_	.	.	.	.	.
.	.	4r	.	2r	.	.	.	.	.	.
.	.	4AA 4F 4d	to	.	.	.	.	.	.	.
=50	=50	=50	=50	=50	=50	=50	=50	=50	=50	=50
1r	.	1AA 1E 1c#	hear...	4r	.	1AM	A:maj (A C# E)	newline	120.635	choir
.	.	.	.	4e	To	.	.	.	.	.
.	.	.	.	4a	hear	.	.	.	.	.
.	.	.	.	4cc#	those	.	.	.	.	.
=51	=51	=51	=51	=51	=51	=51	=51	=51	=51	=51
1r	.	1r	.	4f# 4b 4dd	sleigh	4AM	A:sus4 (A D E)	.	.	choir
.	.	.	.	4e 4a 4cc#	bells	4AM	A:maj (A C# E)	.	.	choir
.	.	.	.	4d# 4g# 4b	in	2BMm	B:7 (B D# F# A)	.	.	choir
.	.	.	.	4d# 4f# 4a	the	.	.	.	.	.
=52	=52	=52	=52	=52	=52	=52	=52	=52	=52	=52
1r	.	1r	.	[1d [1g# [1b	snow	1EMm	E:7 (E G# B D)	.	.	choir
=53	=53	=53	=53	=53	=53	=53	=53	=53	=53	=53
1r	.	1r	.	2.d] 2.g#] 2.b]	_	1EMm	E:7 (E G# B D)	.	.	choir
.	.	.	.	4r	.	.	.	.	.	.
=54	=54	=54	=54	=54	=54	=54	=54	=54	=54	=54
*>Letter>B4	*>Letter>B4	*>Letter>B4	*>Letter>B4	*>Letter>B4	*>Letter>B4	*>Letter>B4	*>Letter>B4	*>Letter>B4	*>Letter>B4	*>Letter>B4
*>Label>Theme	*>Label>Theme	*>Label>Theme	*>Label>Theme	*>Label>Theme	*>Label>Theme	*>Label>Theme	*>Label>Theme	*>Label>Theme	*>Label>Theme	*>Label>Theme
1r	.	1r	.	1c#	I'm	1AM	A:maj (A C# E)	newline	130.443	choir
=55	=55	=55	=55	=55	=55	=55	=55	=55	=55	=55
1r	.	1r	.	4d	drea-	4DM	D:maj (A D F#)	.	.	choir
.	.	.	.	4c#	-ming	4AM	A:maj (A C# E)	.	.	choir
.	.	.	.	4c	of	4G#M	G#:maj (A G# B# D#)	.	.	choir
.	.	.	.	4c#	a	4AM	A:maj (A C# E)	.	.	choir
=56	=56	=56	=56	=56	=56	=56	=56	=56	=56	=56
1r	.	1r	.	1d	white	1Bmm	B:min7 (B D F# A)	.	.	choir
=57	=57	=57	=57	=57	=57	=57	=57	=57	=57	=57
1r	.	1r	.	4d#	Christ-	2D#d	D#:dim (E D# F# A)	.	.	choir
.	.	.	.	4e	-mas,	.	.	.	.	.
.	.	.	.	2r	.	2EMm	E:7 (E G# B D)	.	.	choir
=58	=58	=58	=58	=58	=58	=58	=58	=58	=58	=58
1r	.	1r	.	4r	.	1Bmm	B:min7 (B D F# A)	newline	140.245	choir
.	.	.	.	4d 4f#	with	.	.	.	.	.
.	.	.	.	4e 4g#	ev-	.	.	.	.	.
.	.	.	.	4f# 4a	-'ry	.	.	.	.	.
=59	=59	=59	=59	=59	=59	=59	=59	=59	=59	=59
1r	.	1r	.	4g# 4b	Christ-	2DM	D:maj (D F# A)	.	.	choir
.	.	.	.	4f# 4a	-mas	.	.	.	.	.
.	.	.	.	4e 4g#	card	2EMm	E:7 (E G# B D)	.	.	choir
.	.	.	.	4d 4f#	I	.	.	.	.	.
=60	=60	=60	=60	=60	=60	=60	=60	=60	=60	=60
1r	.	1r	.	1c# 1e	write.	1AM	A:maj (A C# E)	.	.	choir
=61	=61	=61	=61	=61	=61	=61	=61	=61	=61	=61
2r	.	1r	.	2r	.	4G#M	G#:maj (A G# B# D#)	.	.	choir
.	.	.	.	.	.	2.AM	A:maj (A C# E)	.	.	choir
4C#	May	.	.	4A	May	.	.	.	.	.
8D	your	.	.	4B	your	.	.	.	.	.
[8E	days	.	.	.	.	.	.	.	.	.
=62	=62	=62	=62	=62	=62	=62	=62	=62	=62	=62
2E]	_	1r	.	2c#	days	2AM	A:maj (A C# E)	newline	150.001	voice choir
4r	.	.	.	4r	.	2AMm	A:7 (A C# E G)	.	.	voice choir
8A	be	.	.	4c#	be	.	.	.	.	.
8G#	_	.	.	.	.	.	.	.	.	.
=63	=63	=63	=63	=63	=63	=63	=63	=63	=63	=63
4G	mer-	1r	.	4c#	mer-	1AMm	A:7 (A C# E G)	.	.	voice choir
4A	-ry,	.	.	4f#	-ry	.	.	.	.	.
4r	.	.	.	4r	.	.	.	.	.	.
12r	.	.	.	4e	and	.	.	.	.	.
[12G	and	.	.	.	.	.	.	.	.	.
12G]	_	.	.	.	.	.	.	.	.	.
=64	=64	=64	=64	=64	=64	=64	=64	=64	=64	=64
[2F#	bright,	1r	.	[1a	bright	1DM	D:maj (D F# A)	.	.	voice choir
8F#]	_	.	.	.	.	.	.	.	.	.
8A	_	.	.	.	.	.	.	.	.	.
8F#	_	.	.	.	.	.	.	.	.	.
[8F	_	.	.	.	.	.	.	.	.	.
=65	=65	=65	=65	=65	=65	=65	=65	=65	=65	=65
4F]	_	1r	.	4a]	...	1Dm	D:min6(7) (D F A B C#)	.	.	voice choir
4r	.	.	.	4r	.	.	.	.	.	.
4.AA	and	.	.	2r	.	.	.	.	.	.
8BB	may	.	.	.	.	.	.	.	.	.
=66	=66	=66	=66	=66	=66	=66	=66	=66	=66	=66
2C#	all	1r	.	1r	.	1AM	A:maj (A C# E)	newline	161.178	voice
4r	.	.	.	.	.	.	.	.	.	.
8r	.	.	.	.	.	.	.	.	.	.
8C#	your	.	.	.	.	.	.	.	.	.
=67	=67	=67	=67	=67	=67	=67	=67	=67	=67	=67
4.F#	Christ-	1r	.	1r	.	1EMm	E:7 (E G# B D)	.	.	voice
8GG#	-ma-	.	.	.	.	.	.	.	.	.
4.GG#	-ses	.	.	.	.	.	.	.	.	.
8GG#	be	.	.	.	.	.	.	.	.	.
=68	=68	=68	=68	=68	=68	=68	=68	=68	=68	=68
[1AA	white.	1r	.	1r	.	1AM	A:maj6 (A C# E F#)	.	.	voice
=69	=69	=69	=69	=69	=69	=69	=69	=69	=69	=69
1AA]	_	1r	.	1r	.	1AM	A:maj6 (A C# E F#)	.	.	voice
r;	.	r;	.	r;	.	1r;	r	.	179.676	r
r;	.	r;	.	r;	.	1r;	r	.	181.979	r
*-	*-	*-	*-	*-	*-	*-	*-	*-	*-	*-
!!!BillboardChartDate: 1962/12/29
!!!BillboardPeak: 12
!!!BillboardWeeksOnChart: 13
!!!COC: Bing Crosby
!!!ENC: Nathaniel Condit-Schultz
!!!EST: Awating manual error checking and editing.
!!!OTL: White Christmas
!!!RDF**chordsym: original McGill chord annotation + (implied pitch class set, with bass pitch in first position)
!!!RDF**harmony: **recip + pitch class of root + harmonic quality
!!!RDF**leadinstrument: original McGill primary instrumentation annotation
!!!RDF**phrase: newline = linebreak in original McGill transcription
!!!RDF**timestamp: McGill audio timestamp in seconds
!!!RDT: 2017/01/12/
!!!SampleActualRank: 38
!!!SampleID#: 0241
!!!SampleTargetRank: 40
